icon-themes/sifr_svg/cmd/sc_cube.svg

<svg viewBox="0 0 16 16" xmlns="http://www.w3.org/2000/svg"><g fill="#555753"><path d="m3 2v11h11v-11z" opacity=".35"/><path d="m5 0-4 4v11h11l4-4v-11zm.828125 2h6.757813l-2 2h-6.757813zm8.171875 1.4140625v6.7578125l-2 2v-6.7578125zm-11 2.5859375h7v7h-7z"/></g></svg>

<svg xmlns="http://www.w3.org/2000/svg" viewBox="0 0 16 16">
  <path
     style="opacity:0.35;fill:#555753"
     d="M 3 2 L 3 13 L 14 13 L 14 2 L 3 2 z "
     />
  <path
     style="fill:#555753"
     d="M 5 0 L 1 4 L 1 15 L 12 15 L 16 11 L 16 0 L 5 0 z M 5.828125 2 L 12.585938 2 L 10.585938 4 L 3.828125 4 L 5.828125 2 z M 14 3.4140625 L 14 10.171875 L 12 12.171875 L 12 5.4140625 L 14 3.4140625 z M 3 6 L 10 6 L 10 13 L 3 13 L 3 6 z "
     />
</svg>
